X: 5
T: Nos Galan
T: New Year's Eve
M: 4/4
L: 1/8
R: Hornpipe
K: FMaj
|: c3 B A2 G2 | F2 FG A2 F2 | GABG A3 G | F2 E2 F4 :|
G2 GA B2 G2 | A2 AB c2 G2 | AGAB c2 f2 | e2 d2 cGAB |
c2 cB A2 AG | FEFG A2 F2 | GdBG c3 G | F2 E2 F4 |]
